X:1
T:Humours of Dublin [2], The
M:6/8
L:1/8
R:Jig
S:McGlashan - Collection of Scots Measures  (c. 1780)
Z:AK/Fiddler's Companion
K:Dmix
dAG F2D | AFD E/F/GE | dAG F2D | GEC E/FGE |
dAG F2D | f/g/af g2e |dcB c2A | GEC E/F/GE :|
|: f2(d d)fd | dfd e/f/ge | f2(d d)fd | gec e/f/ge |
f2(d d)fd | BGB AGF | GBG FAF | GEC E/F/GE :|
|: DFD F2D | DFD E/F/GE | DFD F2D | GEC E/F/GE |
DFD F2D | f/g/af g2e | dcB c2A GEC E/F/GE :|
|: f2(d d)fg | afd e/f/ge | f2(d d)ef | gec e/f/ge |
f2(d d)fd | GBG AGF | GAB cBA | GEC E/F/GE :||

